X: 1
T: Valse Des Grands Bancs
R: waltz
M: 3/4
L: 1/8
K: Cmaj
E2|:A4A2|B4B2|c4B2|A4c2|e4c2|d4d2|
e6|d2c2B2|1 A6-|A4E2:|2 A6-|A4a2|
|:g4e2|f4d2|e4c2|d4a2|g4e2|f4d2|
e3|1 d2c2d2|e6-|e4a2:|2 d2c2B2|A6-|A4z2||

